assets/icons/uE034-clipboard.svg

<svg xmlns="http://www.w3.org/2000/svg" width="896" height="1232" viewBox="0 0 896 1232"><path d="M140 644v-28h616v28H140zm0 84v-28h616v28H140zm0 84v-28h616v28H140zm0-336v-28h616v28H140zm0 84v-28h616v28H140zm700-420q23 0 39.5 16.5T896 196v700q0 23-16.5 39.5T840 952H56q-23 0-39.5-16.5T0 896V196q0-23 16.5-39.5T56 140h112V84q0-11 8-19.5t20-8.5q11 0 19.5 8.5T224 84v56h112V84q0-11 8-19.5t20-8.5q11 0 19.5 8.5T392 84v56h112V84q0-11 8-19.5t20-8.5q11 0 19.5 8.5T560 84v56h112V84q0-11 8-19.5t20-8.5q11 0 19.5 8.5T728 84v56h112zm0 756V196H728v84q0 12-8.5 20t-19.5 8q-12 0-20-8t-8-20v-84H560v84q0 12-8.5 20t-19.5 8q-12 0-20-8t-8-20v-84H392v84q0 12-8.5 20t-19.5 8q-12 0-20-8t-8-20v-84H224v84q0 12-8.5 20t-19.5 8q-12 0-20-8t-8-20v-84H56v700h784z"/></svg>

<?xml version="1.0" encoding="UTF-8" standalone="no"?><svg   xmlns:svg="http://www.w3.org/2000/svg"   xmlns="http://www.w3.org/2000/svg"   version="1.1"   width="896"   height="1232"   viewBox="0 0 896 1232">  <path     d="M140 644V616H756V644H140zM140 728V700H756V728H140zM140 812V784H756V812H140zM140 476V448H756V476H140zM140 560V532H756V560H140zM840 140Q863 140 879.5 156.5T896 196V896Q896 919 879.5 935.5T840 952H56Q33 952 16.5 935.5T0 896V196Q0 173 16.5 156.5T56 140H168V84Q168 73 176 64.5T196 56Q207 56 215.5 64.5T224 84V140H336V84Q336 73 344 64.5T364 56Q375 56 383.5 64.5T392 84V140H504V84Q504 73 512 64.5T532 56Q543 56 551.5 64.5T560 84V140H672V84Q672 73 680 64.5T700 56Q711 56 719.5 64.5T728 84V140H840zM840 896V196H728V280Q728 292 719.5 300T700 308Q688 308 680 300T672 280V196H560V280Q560 292 551.5 300T532 308Q520 308 512 300T504 280V196H392V280Q392 292 383.5 300T364 308Q352 308 344 300T336 280V196H224V280Q224 292 215.5 300T196 308Q184 308 176 300T168 280V196H56V896H840z"     id="icon173" /></svg>
